X:1
T:Title
%%score 1 { 2 | 3 }
L:1/8
Q:1/4=90
M:4/4
K:Bb
V:1 treble nm="Grand Piano, Soprano"
V:2 bass nm="Choir Pad, In the Secret Place of God"
V:3 bass 
V:1
 [DB][Ec][Fd][DB] [EG][GB][DF][DF] | [B,D][DF] [EG]2 [CE]2 [DF]2 | [DB][Ec][Fd][DB] [EG][GB]F[FB] | %3
w: By~Walter~Lewis * * * * * * *|||
 [FA][FB] [Gc]<[Ec] [=Ec]>[Ed] [Fc]2 | [DB][Ec][Fd][DB] [EG][GB][DF][DF] | %5
w: ||
 [B,D][DF][EG][EG] [=EA][EB] [Fc]2 | [DB][Ec][Fd][DB] [EG][GB]F[DB] | %7
w: ||
 [FB][Gc] [Bd]<B [Ac]>[Fc] [FB]2 | [FA][GB][Ac][Ac] [_A=B][=Ac] [_Bd]<[Ac] | %9
w: ||
 [FB][FA][=EG][FA] [GB][Ec] [FA]2 | [FA][GB][Ac][Ac] [_A=B][=Ac][_Bd][df] | %11
w: ||
 [c=e][Bd][Gc][EG] [GB]>[=EG] F2 | [Fd]>[Ec] [DB][DB] [DB]>[DB] [Ec][DB] | %13
w: ||
 [FB][FA][EG][GB] [FA][EG] [DF]2 | FF[EG][FA] [GB][Gc][Fd][DB] | %15
w: ||
 [_DA][DG][=DF][FB] [FA]>[FB] [FB]2- | [FB]6 z2 |] %17
w: ||
V:2
 B,B,B,B, B,B,B,B, | B,B, B,2 A,2 B,2 | B,B,B,B, B,B,B,B, | CD E<G, C>[K:bass]B, A,2 | %4
 B,B,B,B, B,B,B,B, | B,B,B,B, CB, A,2 | B,A,B,B, B,B,B,B, | B,B, B,<D E>E D2 | %8
 F,F,F,F, F,F, F,<F, | DCB,A, G,C C2 | F,F,F,F, F,F,B,B, | DFFC C>[K:bass]B, A,2 | %12
 B,>A, B,F, G,>A, B,B, | B,DB,B, B,B, B,2 | B,B,B,B, B,EB,B, | B,B,B,[K:treble]D E>D D2- | D6 z2 |] %17
V:3
 B,,B,,B,,B,, B,,B,,B,,B,, | B,,B,, E,2 F,2 B,,2 | B,,B,,B,,B,, E,E,D,B,, | E,D, C,<C, C,>C, F,2 | %4
 B,,B,,B,,B,, B,,B,,B,,B,, | B,,B,,E,E, C,C,F,E, | D,C,B,,B,, E,E,D,B,, | D,E, F,<F, F,>F, B,,2 | %8
 z8 | F,F,C,C, C,C, F,2 | z8 | B,B, .C2 C,>C, F,2 | F,>F, B,,B,, B,,>B,, B,,B,, | %13
 D,D,E,E, E,E, z2 | D,D,E,E, E,E,F,F, | =E,E,F,F, F,>B,, B,,2- | B,,6 z2 |] %17

